source/img/sprite/logo-ok.svg

<svg width="11" height="16" viewBox="0 0 11 16" fill="none" xmlns="http://www.w3.org/2000/svg">
<path d="M5.46973 2.42035C6.44164 2.42035 7.23206 3.18736 7.23206 4.1305C7.23206 5.0708 6.44164 5.83781 5.46973 5.83781C4.49781 5.83781 3.7074 5.0708 3.7074 4.1305C3.7074 3.18736 4.49781 2.42035 5.46973 2.42035ZM5.46973 8.25816C7.81755 8.25816 9.72625 6.40597 9.72625 4.1305C9.72625 1.85219 7.81755 0 5.46973 0C3.1219 0 1.21613 1.85219 1.21613 4.1305C1.21613 6.40597 3.1219 8.25816 5.46973 8.25816ZM7.19107 11.6273C8.0576 11.4342 8.89193 11.1018 9.66185 10.6331C10.2444 10.278 10.4201 9.53083 10.0541 8.96551C9.68527 8.39735 8.91827 8.22691 8.33278 8.58485C6.59094 9.6473 4.34851 9.6473 2.60374 8.58485C2.02118 8.22691 1.25126 8.39735 0.885325 8.96551C0.519392 9.53083 0.69504 10.278 1.2776 10.6331C2.04753 11.1018 2.88185 11.4342 3.74838 11.6273L1.36836 13.934C0.882397 14.4056 0.882397 15.1726 1.36836 15.6442C1.61426 15.88 1.93043 15.9993 2.24952 15.9993C2.56861 15.9993 2.88771 15.88 3.13361 15.6442L5.46973 13.3772L7.80877 15.6442C8.29472 16.1186 9.08221 16.1186 9.5711 15.6442C10.0571 15.1726 10.0571 14.4056 9.5711 13.934L7.19107 11.6273Z" fill="#2D383F"/>
</svg>

<svg viewBox="0 0 11 16" fill="none" xmlns="http://www.w3.org/2000/svg"><path d="M5.47 2.42c.97 0 1.76.77 1.76 1.71s-.79 1.7-1.76 1.7-1.76-.76-1.76-1.7.79-1.71 1.76-1.71Zm0 5.84a4.2 4.2 0 0 0 4.26-4.13 4.2 4.2 0 0 0-4.26-4.13 4.2 4.2 0 0 0-4.25 4.13 4.2 4.2 0 0 0 4.25 4.13Zm1.72 3.37c.87-.2 1.7-.53 2.47-1 .58-.35.76-1.1.4-1.66a1.27 1.27 0 0 0-1.73-.39 5.55 5.55 0 0 1-5.73 0 1.26 1.26 0 0 0-1.71.39c-.37.56-.2 1.3.39 1.66.77.47 1.6.8 2.47 1l-2.38 2.3a1.19 1.19 0 0 0 0 1.71 1.27 1.27 0 0 0 1.76 0l2.34-2.26 2.34 2.26c.48.48 1.27.48 1.76 0 .49-.47.49-1.23 0-1.7l-2.38-2.31Z" fill="#2D383F"/></svg>
